X:81
T:B081-  Come, shepherds, deck your heads
S:(3rd/3)
Q:1/4=120
L:1/4
M:C
K:Ddorian
D|AcdD|A3A|c3/2A/2GF|GG2G|\
AAA^G|A3A|cde^c|dd2A|\
D2A2|FD(A2|A)AAG|ccFF-|FAA3/2G/2|\
FED/2E/2F/2G/2|A3/2A/2 B/2c/2d|\
d^cdd|]

